icons/google-play-fill.svg

<svg xmlns="http://www.w3.org/2000/svg" width="24" height="24" fill="none"><g clip-path="url(#a)"><g><path fill="#121212" d="M3.609 1.81396L13.792 12L3.61 22.186C3.42894 22.1098 3.27443 21.9819 3.16589 21.8182C3.05736 21.6545 2.99964 21.4624 3 21.266V2.73396C3.00008 2.53779 3.05786 2.34596 3.16614 2.18238C3.27443 2.01879 3.42844 1.89067 3.609 1.81396ZM14.499 12.707L16.801 15.009L5.864 21.342L14.499 12.707ZM17.698 9.50896L20.505 11.135C20.6565 11.2229 20.7823 11.349 20.8698 11.5009C20.9572 11.6527 21.0032 11.8248 21.0032 12C21.0032 12.1752 20.9572 12.3473 20.8698 12.4991C20.7823 12.6509 20.6565 12.7771 20.505 12.865L17.697 14.491L15.206 12L17.698 9.50896ZM5.864 2.65796L16.802 8.98996L14.499 11.293L5.864 2.65796Z"/></g></g><defs><clipPath id="a"><rect width="24" height="24" fill="white"/></clipPath></defs></svg>

<svg width="24" height="24" fill="none" xmlns="http://www.w3.org/2000/svg"><g clip-path="url(#a)"><path d="M3.609 1.814 13.792 12 3.61 22.186a.997.997 0 0 1-.61-.92V2.734a1 1 0 0 1 .609-.92Zm10.89 10.893 2.302 2.302-10.937 6.333 8.635-8.635Zm3.199-3.198 2.807 1.626a1 1 0 0 1 0 1.73l-2.808 1.626L15.206 12l2.492-2.491ZM5.864 2.658 16.802 8.99l-2.303 2.303-8.635-8.635Z" /></g><defs><clipPath id="a"><path fill="#fff" d="M0 0h24v24H0z"/></clipPath></defs></svg>
